packages/components/src/components/icon/common/ic-boleto-d24-voucher-light.svg

<svg width="128" height="80" viewBox="0 0 128 80" fill="none" xmlns="http://www.w3.org/2000/svg">
<path d="M23.1948 21H21V58.949H23.1948V21Z" fill="#333333"/>
<path d="M107 21H104.477V58.949H107V21Z" fill="#333333"/>
<path d="M25.0323 21H23.8583V58.949H25.0323V21Z" fill="#333333"/>
<path d="M30.953 21H26.8952V37.5373H30.953V21Z" fill="#333333"/>
<path d="M33.5561 21H32.3822V37.5373H33.5561V21Z" fill="#333333"/>
<path d="M46.7247 21H45.5508V37.5373H46.7247V21Z" fill="#333333"/>
<path d="M55.2484 21H54.0745V37.5373H55.2484V21Z" fill="#333333"/>
<path d="M62.0625 21H60.8885V37.5373H62.0625V21Z" fill="#333333"/>
<path d="M70.9946 21H69.8207V37.5373H70.9946V21Z" fill="#333333"/>
<path d="M72.3728 21H71.454V37.5373H72.3728V21Z" fill="#333333"/>
<path d="M77.4513 21H76.1753V37.5373H77.4513V21Z" fill="#333333"/>
<path d="M80.4117 21H79.1357V37.5373H80.4117V21Z" fill="#333333"/>
<path d="M81.8664 21H80.9476V37.5373H81.8664V21Z" fill="#333333"/>
<path d="M86.8684 21H85.6689V37.5373H86.8684V21Z" fill="#333333"/>
<path d="M97.8422 21H95.6985V37.5373H97.8422V21Z" fill="#333333"/>
<path d="M94.4479 21H93.2485V37.5373H94.4479V21Z" fill="#333333"/>
<path d="M101.39 21H100.19V37.5373H101.39V21Z" fill="#333333"/>
<path d="M102.87 21H101.874V37.5373H102.87V21Z" fill="#333333"/>
<path d="M91.9979 21H87.9402V37.5373H91.9979V21Z" fill="#333333"/>
<path d="M84.9544 21H82.8107V37.5373H84.9544V21Z" fill="#333333"/>
<path d="M67.4984 21H65.3801V37.5373H67.4984V21Z" fill="#333333"/>
<path d="M75.5373 21H73.4191V37.5373H75.5373V21Z" fill="#333333"/>
<path d="M40.3189 21H39.145V37.5373H40.3189V21Z" fill="#333333"/>
<path d="M42.0799 21H40.906V37.5373H42.0799V21Z" fill="#333333"/>
<path d="M63.4916 21H62.5729V37.5373H63.4916V21Z" fill="#333333"/>
<path d="M36.7717 21H34.6535V37.5373H36.7717V21Z" fill="#333333"/>
<path d="M44.9382 21H42.82V37.5373H44.9382V21Z" fill="#333333"/>
<path d="M52.671 21H48.8174V37.5373H52.671V21Z" fill="#333333"/>
<path d="M58.6427 21H56.3459V37.5373H58.6427V21Z" fill="#333333"/>
<path d="M27.5077 58.6682V39.4768H34.73C36.2102 39.4768 37.3841 39.6555 38.2773 40.0638C40.0382 40.8294 41.0846 42.6414 41.0846 44.3768C41.0846 46.0101 40.1914 47.5668 38.4049 48.46C40.7273 49.1236 42.0288 50.8845 42.0288 53.1048C42.0288 54.9167 41.1356 56.5756 40.0382 57.3922C38.9409 58.2599 37.3076 58.6682 34.8321 58.6682H27.5077ZM30.0597 47.5413H34.2196C35.3425 47.5413 36.1591 47.4647 36.644 47.3371C37.92 46.9288 38.6091 46.0611 38.6091 44.683C38.6091 44.0705 38.456 43.5091 38.1497 43.0242C37.8435 42.5393 37.4096 42.2075 36.8227 42.0289C36.2612 41.8502 35.2659 41.7482 33.8878 41.7482H30.0597V47.5413ZM30.0597 56.3969H34.8321C35.6742 56.3969 36.2357 56.3714 36.5675 56.3204C38.1753 56.0141 39.3747 55.0699 39.3747 53.1048C39.3747 52.3902 39.1961 51.7522 38.8388 51.2163C38.0987 50.1699 36.9247 49.7871 34.5003 49.7871H30.0597V56.3969Z" fill="#333333"/>
<path d="M46.4694 45.9846C47.6689 44.9637 49.1236 44.4533 50.8334 44.4533C52.7475 44.4533 54.3297 45.0658 55.5292 46.3418C56.7287 47.6179 57.3412 49.3277 57.3412 51.5225C57.3412 53.3089 57.0604 54.7126 56.5245 55.7334C55.4526 57.8005 53.2579 59 50.8079 59C48.8684 59 47.3116 58.3875 46.1121 57.1115C44.9127 55.861 44.3002 54.049 44.3002 51.7267C44.3257 49.1491 45.0658 47.2606 46.4694 45.9846ZM50.8589 57.0349C53.2068 57.0349 54.9678 55.2995 54.9678 51.6501C54.9678 49.9402 54.5594 48.6132 53.7938 47.7455C53.0282 46.8523 52.0329 46.3929 50.8589 46.3929C48.4855 46.3929 46.7757 48.1538 46.7757 51.7267C46.7757 55.274 48.4855 57.0349 50.8589 57.0349Z" fill="#333333"/>
<path d="M60.0717 39.4768H62.4452V58.6938H60.0717V39.4768Z" fill="#333333"/>
<path d="M78.0638 54.4829C77.2982 57.3412 75.1545 59 71.9389 59C69.8972 59 68.2895 58.3875 67.1155 57.1115C65.916 55.861 65.3291 54.1001 65.3291 51.8288C65.3291 49.5064 65.916 47.6689 67.1155 46.3929C68.315 45.1169 69.8717 44.4533 71.8113 44.4533C73.6743 44.4533 75.18 45.0658 76.3794 46.3418C77.5534 47.5924 78.1404 49.4043 78.1404 51.7011C78.1404 51.8288 78.1404 52.0584 78.1148 52.3136H67.728C67.9066 55.4016 69.6165 57.0349 71.9389 57.0349C73.6743 57.0349 74.8993 56.1928 75.6138 54.2022L78.0638 54.4829ZM75.6394 50.3996C75.5373 49.2257 75.231 48.3324 74.7461 47.771C74.006 46.8523 73.0363 46.3929 71.8113 46.3929C69.642 46.3929 68.0342 47.9496 67.8301 50.3996H75.6394Z" fill="#333333"/>
<path d="M86.511 58.6427C85.8475 58.7703 85.235 58.8469 84.7246 58.8469C83.8569 58.8469 83.1934 58.7193 82.734 58.4385C82.2746 58.1578 81.9174 57.8261 81.7387 57.3667C81.5601 56.9073 81.4325 55.9886 81.4325 54.585V46.597H79.7226V44.7341H81.4325V41.3143L83.7548 39.8852V44.7341H86.1537V46.597H83.7548V54.7381C83.7548 55.4016 83.8059 55.8355 83.8824 56.0141C84.0611 56.3969 84.4184 56.6521 85.0819 56.6521C85.3626 56.6521 85.6944 56.6266 86.1282 56.55L86.511 58.6427Z" fill="#333333"/>
<path d="M89.7266 45.9846C90.926 44.9637 92.3807 44.4533 94.0906 44.4533C96.0046 44.4533 97.5869 45.0658 98.7863 46.3418C99.9858 47.6179 100.598 49.3277 100.598 51.5225C100.598 53.3089 100.318 54.7126 99.7817 55.7334C98.7098 57.8005 96.515 59 94.0651 59C92.1255 59 90.5688 58.3875 89.3693 57.1115C88.1698 55.8355 87.5573 54.049 87.5573 51.7267C87.5829 49.1491 88.2974 47.2606 89.7266 45.9846ZM94.0906 57.0349C96.4385 57.0349 98.1994 55.2995 98.1994 51.6501C98.1994 49.9402 97.7911 48.6132 97.0254 47.7455C96.2598 46.8523 95.2645 46.3929 94.0906 46.3929C91.7172 46.3929 90.0073 48.1538 90.0073 51.7267C90.0073 55.274 91.7427 57.0349 94.0906 57.0349Z" fill="#333333"/>
</svg>

<svg width="128" height="80" fill="none" xmlns="http://www.w3.org/2000/svg"><path d="M23.195 21H21v37.949h2.195V21ZM107 21h-2.523v37.949H107V21ZM25.032 21h-1.174v37.949h1.174V21ZM30.953 21h-4.058v16.537h4.058V21ZM33.556 21h-1.174v16.537h1.174V21ZM46.725 21H45.55v16.537h1.174V21ZM55.248 21h-1.173v16.537h1.173V21ZM62.063 21h-1.175v16.537h1.175V21ZM70.995 21H69.82v16.537h1.174V21ZM72.373 21h-.919v16.537h.919V21ZM77.451 21h-1.276v16.537h1.276V21ZM80.412 21h-1.276v16.537h1.276V21ZM81.866 21h-.918v16.537h.918V21ZM86.868 21h-1.2v16.537h1.2V21ZM97.842 21h-2.144v16.537h2.144V21ZM94.448 21h-1.2v16.537h1.2V21ZM101.39 21h-1.2v16.537h1.2V21ZM102.87 21h-.996v16.537h.996V21ZM91.998 21H87.94v16.537h4.058V21ZM84.954 21h-2.143v16.537h2.143V21ZM67.498 21H65.38v16.537h2.118V21ZM75.537 21H73.42v16.537h2.118V21ZM40.319 21h-1.174v16.537h1.174V21ZM42.08 21h-1.174v16.537h1.174V21ZM63.492 21h-.92v16.537h.92V21ZM36.772 21h-2.118v16.537h2.118V21ZM44.938 21H42.82v16.537h2.118V21ZM52.671 21h-3.854v16.537h3.854V21ZM58.643 21h-2.297v16.537h2.297V21ZM27.508 58.668V39.477h7.222c1.48 0 2.654.179 3.547.587 1.761.765 2.808 2.577 2.808 4.313 0 1.633-.894 3.19-2.68 4.083 2.322.664 3.624 2.425 3.624 4.645 0 1.812-.893 3.47-1.99 4.287-1.098.868-2.731 1.276-5.207 1.276h-7.324Zm2.552-11.127h4.16c1.123 0 1.94-.076 2.424-.204 1.276-.408 1.965-1.276 1.965-2.654a3.06 3.06 0 0 0-.46-1.659c-.306-.485-.74-.816-1.326-.995-.562-.179-1.557-.28-2.935-.28H30.06v5.792Zm0 8.856h4.772c.842 0 1.404-.026 1.736-.077 1.607-.306 2.807-1.25 2.807-3.215 0-.715-.179-1.353-.536-1.889-.74-1.046-1.914-1.429-4.339-1.429h-4.44v6.61ZM46.47 45.985c1.199-1.021 2.654-1.532 4.363-1.532 1.915 0 3.497.613 4.696 1.889 1.2 1.276 1.812 2.986 1.812 5.18 0 1.787-.28 3.19-.816 4.211C55.453 57.801 53.258 59 50.808 59c-1.94 0-3.496-.612-4.696-1.889-1.2-1.25-1.812-3.062-1.812-5.384.026-2.578.766-4.466 2.17-5.742Zm4.389 11.05c2.348 0 4.109-1.735 4.109-5.385 0-1.71-.409-3.037-1.174-3.904-.766-.894-1.761-1.353-2.935-1.353-2.373 0-4.083 1.76-4.083 5.334 0 3.547 1.71 5.308 4.083 5.308ZM60.072 39.477h2.373v19.217h-2.373V39.477ZM78.064 54.483C77.298 57.34 75.154 59 71.939 59c-2.042 0-3.65-.612-4.823-1.889-1.2-1.25-1.787-3.01-1.787-5.282 0-2.323.587-4.16 1.787-5.436 1.199-1.276 2.756-1.94 4.695-1.94 1.863 0 3.369.613 4.568 1.889 1.174 1.25 1.761 3.062 1.761 5.36 0 .127 0 .356-.025.612H67.728c.179 3.088 1.889 4.72 4.21 4.72 1.736 0 2.961-.841 3.676-2.832l2.45.28ZM75.639 50.4c-.102-1.174-.408-2.068-.893-2.629-.74-.919-1.71-1.378-2.935-1.378-2.169 0-3.777 1.557-3.98 4.007h7.808ZM86.511 58.643c-.663.127-1.276.204-1.786.204-.868 0-1.532-.128-1.991-.409-.46-.28-.817-.612-.995-1.071-.179-.46-.306-1.378-.306-2.782v-7.988h-1.71v-1.863h1.71v-3.42l2.322-1.429v4.85h2.399v1.862h-2.4v8.141c0 .664.052 1.098.128 1.276.18.383.536.638 1.2.638.28 0 .612-.025 1.046-.102l.383 2.093ZM89.727 45.985c1.199-1.021 2.654-1.532 4.364-1.532 1.914 0 3.496.613 4.695 1.889 1.2 1.276 1.812 2.986 1.812 5.18 0 1.787-.28 3.19-.816 4.211C98.71 57.801 96.515 59 94.065 59c-1.94 0-3.496-.612-4.696-1.889-1.2-1.275-1.812-3.062-1.812-5.384.026-2.578.74-4.466 2.17-5.742Zm4.364 11.05c2.348 0 4.108-1.735 4.108-5.385 0-1.71-.408-3.037-1.174-3.904-.765-.894-1.76-1.353-2.934-1.353-2.374 0-4.084 1.76-4.084 5.334 0 3.547 1.736 5.308 4.084 5.308Z" fill="#333"/></svg>
